X: 413
T:The Humours of Drinagh
M:6/8
L:1/8
R:Jig
Z:Kevin Gow
K:D
FED DFA|dfd ecA|FED DFA|dAF G2A|FED DFA|!
dfd ecA|FED DFA|dAF G3:||:f2f gfg|agf gfe|!
f2d gfe|agf g2 f/2g/2|agf gfe|fed ecA|FED DFA|dAF G3:|

